symbols/web/restore_from_trash/materialsymbolsrounded/restore_from_trash_wght300grad200fill1_24px.svg

<svg xmlns="http://www.w3.org/2000/svg" height="24" width="24"><path d="M7.2 21.3q-1.025 0-1.737-.713-.713-.712-.713-1.737V5.9H4.5q-.45 0-.763-.313-.312-.312-.312-.762t.312-.763q.313-.312.763-.312h4.45q0-.45.362-.763.363-.312.838-.312h3.75q.475 0 .838.312.362.313.362.763h4.45q.45 0 .762.312.313.313.313.763t-.313.762Q20 5.9 19.55 5.9h-.25v12.95q0 1.025-.713 1.737-.712.713-1.737.713Zm3.75-9.425v3.25q0 .45.313.762.312.313.762.313t.763-.313q.312-.312.312-.762v-3.25l.85.875q.275.275.7.325.425.05.8-.325.35-.325.388-.713.037-.387-.388-.787l-2.6-2.575q-.35-.35-.838-.35-.487 0-.862.375L8.6 11.25q-.325.325-.325.75t.325.75q.325.325.763.312.437-.012.737-.312Z"/></svg>

<svg xmlns="http://www.w3.org/2000/svg" height="24" width="24"><path d="M7.2 21.3Q6.175 21.3 5.463 20.587Q4.75 19.875 4.75 18.85V5.9H4.5Q4.05 5.9 3.737 5.587Q3.425 5.275 3.425 4.825Q3.425 4.375 3.737 4.062Q4.05 3.75 4.5 3.75H8.95Q8.95 3.3 9.312 2.987Q9.675 2.675 10.15 2.675H13.9Q14.375 2.675 14.738 2.987Q15.1 3.3 15.1 3.75H19.55Q20 3.75 20.312 4.062Q20.625 4.375 20.625 4.825Q20.625 5.275 20.312 5.587Q20 5.9 19.55 5.9H19.3V18.85Q19.3 19.875 18.587 20.587Q17.875 21.3 16.85 21.3ZM10.95 11.875V15.125Q10.95 15.575 11.263 15.887Q11.575 16.2 12.025 16.2Q12.475 16.2 12.788 15.887Q13.1 15.575 13.1 15.125V11.875L13.95 12.75Q14.225 13.025 14.65 13.062Q15.075 13.1 15.45 12.75Q15.8 12.425 15.838 12.037Q15.875 11.65 15.45 11.25L12.85 8.675Q12.5 8.325 12.012 8.325Q11.525 8.325 11.15 8.7L8.6 11.25Q8.275 11.575 8.275 12Q8.275 12.425 8.6 12.75Q8.925 13.075 9.363 13.062Q9.8 13.05 10.1 12.75Z"/></svg>
